!!!!SEGMENT: pl-wnifc--13846--079_anonim--piesni-polskie-i-ruskie-ludu-galicyjskiego-79-chodzu-nudzu-ponad-bereh.krn
!!!cenid: 18xx:3301
!!!COM: Anonim
!!!COM-rismID: pe30004985
!!!CDT:
!!!CNT:
!!!GTL: Pieśni polskie i ruskie ludu galicyjskiego
!!!OTL: 79. Chodżu nudżu ponad bereh
!!!OMV: 079
!!!PDT: 1833
!!!AGN:
!!!SMS-siglum: PL-Wnifc
!!!SMS-shelfmark: 13846
!!!SMS-shelfwork: 001-079 G
!!!SMS-variant:
!!!SMS-altvar:
!!!NIFC-rismSourceID: 1001036701
!!!NIFC-rismChildID: 1001037256
!!!NIFC-islandoraID: nifc:210326
!!!URL-pdf-islandora: https://repozytorium.nifc.pl/islandora/object/nifc%3A210326/datastream/PDF/view
!!!URL-scan:
!!!IIIF:
!!!ONB-nifc:
!!!OMD: Andante
!!!AIN: 2 piano 1 vox
!!!key: c
**kern	**kern	**kern	**text
*part3	*part2	*part1	*part1
*group2	*group2	*group1	*group1
*staff3	*staff2	*staff1	*staff1
*I"[FORTEPIAN.]	*I"[FORTEPIAN.]	*I"[GŁOS.]	*
*I'	*I'	*I'	*
*I'	*I'	*I'	*
*Ipiano	*Ipiano	*Ivox	*
*ICklav	*ICklav	*ICvox	*
*IGacmp	*IGacmp	*IGsolo	*
*clefF4	*clefG2	*clefG2	*
*k[b-e-a-]	*k[b-e-a-]	*k[b-e-a-]	*
*c:	*c:	*c:	*
*M2/4	*M2/4	*M2/4	*
*>[A,B,B]	*>[A,B,B]	*>[A,B,B]	*>[A,B,B]
=1	=1	=1	=1
*>A	*>A	*>A	*>A
*^	*	*	*
!!LO:TX:t=P:problem:tekst: Pieśni polskie i ruskie ludu galicyjskiego, s. 238.
!	!	!	!LO:TX:a:B:t=E.42.	!
4E-/	16E-\LL	8.ee-L 8.b- 8.g\	8.ee-\	Cho-
.	16G\	.	.	.
.	16B-\	.	.	.
.	16G\JJ	16b-Jk 16g\	16b-\	-dżu
4E-/	16E-\LL	8ee-L 8b- 8g\	8ee-\	nu-
.	16G\	.	.	.
.	16B-\	8ggJ 8ee- 8b-\	8gg\	-dżu
.	16G\JJ	.	.	.
*v	*v	*	*	*
=2	=2	=2	=2
16A-\LL	8.ffL 8.b- 8.f^<\	8.ff\	po-
16B-\	.	.	.
16d\	.	.	.
16B-\JJ	16b-\Jk	16b-\	-nad
16B-LL 16A- 16F\	8b-\L	8b-\	be-
16d\	.	.	.
16B- 16A- 16F\	8b-\J	8b-\	-reh,
16d\JJ	.	.	.
=3	=3	=3	=3
16e-LL 16E-\	(8ee-L 8b- 8g`\	8ee-\	tia-
16G\	.	.	.
16B-\	8ee- 8b- 8g`\	8ee-\	-żeń-
16G\JJ	.	.	.
16E-/LL	8ee- 8b- 8g`\	8ee-\	-ko
16BB-/	.	.	.
16GG/	8ee-J 8b- 8g`\)	8ee-\	wzdy-
16EE-/JJ	.	.	.
!!linebreak:original
=4	=4	=4	=4
!	!LO:SIC:v:n=2:s=4bn	!	!
8GG 8DD 8BBBn 8GGG^/	4dd 4b- 4gn 4d^/	4dd\	-cha-
!LO:TX:t=P:problem:mixed beam	!	!	!
(8G\L	.	.	.
8GG/J)	(16ee-LL 16g 16e-/	(16ee-\LL	.
.	16dd 16f 16d/	16dd\	.
8G\	16cc 16e- 16c/)	16cc\JJ)	.
.	16bJJ 16Bn`/	16bn\	-ju
=5!|:	=5!|:	=5!|:	=5!|:
*>B	*>B	*>B	*>B
16CC/LL	16ccKL 16g 16e- 16c/	16cc\	bid-
16C/	8.ccJ 8.g 8.e- 8.c/	8.cc\	-naż
16E-/	.	.	.
16C/JJ	.	.	.
!LO:TX:t=P:problem:mixed beam	!	!	!
16DD/LL	16bnKL 16g 16f/	16bn\	mo-
16D\	8.bJ 8.g 8.f/	8.b\	-ja
16F\	.	.	.
16D\JJ	.	.	.
=6	=6	=6	=6
16EE-\LL	16gKL 16c 16G</	16g/	ho-
16E-\	8.gJ 8.e- 8.G</	8.g/	-ło-
16CC\	.	.	.
16C\JJ	.	.	.
16CC/LL	8.ee-L 8.cc 8.g 8.e-/	8.ee-\	-woń-
16C/	.	.	.
16DD/	.	.	.
16D/JJ	16ddJk 16bn 16g 16f/	16dd\	-ka
!!pagebreak:original
=7	=7	=7	=7
16EE-/LL	16ccKL 16g 16c/	16cc\	szczo
16E-/	8.ccJ 8.g 8.c/	8.cc\	do-
16G/	.	.	.
16C/JJ	.	.	.
16DD/LL	16bnKL 16g 16f/	16bn\	-li
16D/	8b^/	8.b\	ne-
16F/	.	.	.
16GG/JJ	16bJk 16g 16f 16d/	.	.
=8	=8	=8	=8
16C/LL	[4g [4e- [4c/	4g/	-ma-
16CC/	.	.	.
16EE-/	.	.	.
16GG/JJ	.	.	.
8C/	8g] 8e-] 8c/]	8g/	-ju
8r	8r	8r	.
==	==	==	==
*-	*-	*-	*-
!!!system-decoration: g1{(g2)}
!!!RDF**kern: > = above
!!!RDF**kern: < = below
!!!RDF**kern: | = vertical stroke
!!!ENC: Katarzyna Serwa
!!!END: 2021-11-11
!!!ENC: Anastazja Marusiak
!!!END: 2021-11-09
!!!YEC: Copyright 2022 Narodowy Instytut Fryderyka Chopina (https://polishscores.org)
!!!YEM: License CC-BY-4.0 (https://creativecommons.org/licenses/by/4.0)
